apps/dashboard/public/images/auth/unity-customer.svg

<svg width="54" height="20" viewBox="0 0 54 20" fill="none" xmlns="http://www.w3.org/2000/svg">
<g id="unnity">
<g id="Vector">
<path d="M25.0286 10.4604C25.0286 11.3012 24.561 11.9 23.5762 11.9C22.5322 11.9 22.0998 11.3364 22.0998 10.496V5.3584H19.9746V10.4232C19.9746 12.428 21.1738 13.6032 23.5746 13.6032C25.9618 13.6032 27.1498 12.404 27.1498 10.4232V5.3608H25.025V10.4608L25.0286 10.4604Z" fill="url(#paint0_linear_6850_192860)"/>
<path d="M25.0286 10.4604C25.0286 11.3012 24.561 11.9 23.5762 11.9C22.5322 11.9 22.0998 11.3364 22.0998 10.496V5.3584H19.9746V10.4232C19.9746 12.428 21.1738 13.6032 23.5746 13.6032C25.9618 13.6032 27.1498 12.404 27.1498 10.4232V5.3608H25.025V10.4608L25.0286 10.4604Z" fill="url(#paint1_linear_6850_192860)"/>
</g>
<g id="Vector_2">
<path d="M31.9738 7.125C31.1218 7.125 30.5347 7.485 30.0779 8.145H30.0414V7.3042H28.1562V13.4482H30.113V10.0538C30.113 9.2978 30.5451 8.7586 31.1923 8.7586C31.8279 8.7586 32.1531 9.2018 32.1531 9.8506V13.4502H34.1099V9.4534C34.1099 8.0858 33.317 7.125 31.9738 7.125Z" fill="url(#paint2_linear_6850_192860)"/>
<path d="M31.9738 7.125C31.1218 7.125 30.5347 7.485 30.0779 8.145H30.0414V7.3042H28.1562V13.4482H30.113V10.0538C30.113 9.2978 30.5451 8.7586 31.1923 8.7586C31.8279 8.7586 32.1531 9.2018 32.1531 9.8506V13.4502H34.1099V9.4534C34.1099 8.0858 33.317 7.125 31.9738 7.125Z" fill="url(#paint3_linear_6850_192860)"/>
</g>
<g id="Vector_3">
<path d="M37.0662 4.86914H35.1094V6.45474H37.0662V4.86914Z" fill="url(#paint4_linear_6850_192860)"/>
<path d="M37.0662 4.86914H35.1094V6.45474H37.0662V4.86914Z" fill="url(#paint5_linear_6850_192860)"/>
</g>
<g id="Vector_4">
<path d="M37.0662 7.30469H35.1094V13.4487H37.0662V7.30469Z" fill="url(#paint6_linear_6850_192860)"/>
<path d="M37.0662 7.30469H35.1094V13.4487H37.0662V7.30469Z" fill="url(#paint7_linear_6850_192860)"/>
</g>
<g id="Vector_5">
<path d="M40.5162 5.36035H38.6074V7.30435H37.791V8.88955H38.6074V11.8296C38.6074 13.1488 39.4242 13.522 40.5642 13.522C41.093 13.522 41.4642 13.474 41.6322 13.426V11.9976C41.5602 11.9976 41.3682 12.0104 41.2002 12.0104C40.7806 12.0104 40.5162 11.8904 40.5162 11.41V8.88955H41.6322V7.30435H40.5162V5.36035Z" fill="url(#paint8_linear_6850_192860)"/>
<path d="M40.5162 5.36035H38.6074V7.30435H37.791V8.88955H38.6074V11.8296C38.6074 13.1488 39.4242 13.522 40.5642 13.522C41.093 13.522 41.4642 13.474 41.6322 13.426V11.9976C41.5602 11.9976 41.3682 12.0104 41.2002 12.0104C40.7806 12.0104 40.5162 11.8904 40.5162 11.41V8.88955H41.6322V7.30435H40.5162V5.36035Z" fill="url(#paint9_linear_6850_192860)"/>
</g>
<g id="Vector_6">
<path d="M45.7981 9.92109C45.6061 10.5219 45.4377 11.3367 45.4377 11.3367H45.4137C45.4137 11.3367 45.2217 10.5199 45.0293 9.92109L44.2017 7.30509H42.1377L43.9501 12.0331C44.2017 12.6819 44.3217 13.0423 44.3217 13.3047C44.3217 13.7239 44.0945 13.9531 43.5181 13.9531H42.8453V15.4775H44.1165C45.3529 15.4775 45.9405 14.9735 46.4317 13.5335L48.5569 7.30469H46.6001L45.7981 9.92109Z" fill="url(#paint10_linear_6850_192860)"/>
<path d="M45.7981 9.92109C45.6061 10.5219 45.4377 11.3367 45.4377 11.3367H45.4137C45.4137 11.3367 45.2217 10.5199 45.0293 9.92109L44.2017 7.30509H42.1377L43.9501 12.0331C44.2017 12.6819 44.3217 13.0423 44.3217 13.3047C44.3217 13.7239 44.0945 13.9531 43.5181 13.9531H42.8453V15.4775H44.1165C45.3529 15.4775 45.9405 14.9735 46.4317 13.5335L48.5569 7.30469H46.6001L45.7981 9.92109Z" fill="url(#paint11_linear_6850_192860)"/>
</g>
<g id="Vector_7">
<path d="M8.61162 3.8989L11.4388 5.5309C11.5404 5.5881 11.544 5.7469 11.4388 5.8041L8.07923 7.7441C8.03132 7.77223 7.97678 7.78707 7.92123 7.78707C7.86567 7.78707 7.81113 7.77223 7.76323 7.7441L4.40403 5.8041C4.30083 5.7485 4.29883 5.5861 4.40403 5.5305L7.22963 3.8989V0.704102L0.015625 4.8693V13.1989L2.78163 11.6025V8.3393C2.78003 8.2229 2.91683 8.1397 3.01842 8.2025L6.37763 10.1425C6.4258 10.1701 6.46585 10.21 6.49373 10.258C6.52161 10.306 6.53633 10.3606 6.53643 10.4161V14.2949C6.53842 14.4109 6.40163 14.4941 6.30003 14.4313L3.47283 12.7997L0.706825 14.3965L7.92002 18.5613L15.134 14.3965L12.3676 12.7997L9.54043 14.4317C9.44083 14.4925 9.30043 14.4129 9.30443 14.2949V10.4161C9.30455 10.3607 9.31925 10.3062 9.34705 10.2583C9.37485 10.2103 9.41478 10.1705 9.46282 10.1429L12.8224 8.2029C12.9224 8.1417 13.0624 8.2189 13.0588 8.3389V11.6025L15.8248 13.1989V4.8689L8.61203 0.704102V3.8989H8.61162Z" fill="url(#paint12_linear_6850_192860)"/>
<path d="M8.61162 3.8989L11.4388 5.5309C11.5404 5.5881 11.544 5.7469 11.4388 5.8041L8.07923 7.7441C8.03132 7.77223 7.97678 7.78707 7.92123 7.78707C7.86567 7.78707 7.81113 7.77223 7.76323 7.7441L4.40403 5.8041C4.30083 5.7485 4.29883 5.5861 4.40403 5.5305L7.22963 3.8989V0.704102L0.015625 4.8693V13.1989L2.78163 11.6025V8.3393C2.78003 8.2229 2.91683 8.1397 3.01842 8.2025L6.37763 10.1425C6.4258 10.1701 6.46585 10.21 6.49373 10.258C6.52161 10.306 6.53633 10.3606 6.53643 10.4161V14.2949C6.53842 14.4109 6.40163 14.4941 6.30003 14.4313L3.47283 12.7997L0.706825 14.3965L7.92002 18.5613L15.134 14.3965L12.3676 12.7997L9.54043 14.4317C9.44083 14.4925 9.30043 14.4129 9.30443 14.2949V10.4161C9.30455 10.3607 9.31925 10.3062 9.34705 10.2583C9.37485 10.2103 9.41478 10.1705 9.46282 10.1429L12.8224 8.2029C12.9224 8.1417 13.0624 8.2189 13.0588 8.3389V11.6025L15.8248 13.1989V4.8689L8.61203 0.704102V3.8989H8.61162Z" fill="url(#paint13_linear_6850_192860)"/>
</g>
<g id="Vector_8">
<path d="M52.762 8.25998C52.603 7.88346 52.3033 7.58382 51.9268 7.42479C51.734 7.34261 51.5264 7.30108 51.3168 7.30278C51.0988 7.30278 50.8976 7.34359 50.7072 7.42479C50.5168 7.50599 50.3504 7.61679 50.2084 7.76079C50.0659 7.90459 49.9518 8.07394 49.872 8.25998C49.7908 8.45038 49.75 8.65199 49.75 8.86999C49.75 9.08599 49.7908 9.28919 49.872 9.47959C49.9532 9.66999 50.064 9.83639 50.2084 9.97839C50.3524 10.1208 50.5188 10.2336 50.7072 10.3148C50.8976 10.396 51.0988 10.4368 51.3168 10.4368C51.5348 10.4368 51.7364 10.396 51.9268 10.3148C52.1172 10.2336 52.2832 10.1228 52.4256 9.97879C52.5696 9.83439 52.6808 9.66799 52.762 9.47959C52.8432 9.28919 52.884 9.08759 52.884 8.86999C52.884 8.65399 52.8432 8.44998 52.762 8.25998ZM52.346 9.46838C52.2414 9.64615 52.0933 9.7944 51.9156 9.89919C51.7339 10.0065 51.5262 10.0619 51.3152 10.0596C51.1046 10.0622 50.8974 10.0067 50.7164 9.89919C50.5391 9.79388 50.3911 9.64575 50.286 9.46838C50.1786 9.28741 50.123 9.08042 50.1252 8.86999C50.1252 8.64999 50.1788 8.44998 50.286 8.27118C50.3907 8.09356 50.5388 7.94546 50.7164 7.84079C50.8975 7.73336 51.1046 7.67773 51.3152 7.67999C51.5262 7.67765 51.7339 7.73312 51.9156 7.84038C52.0929 7.94571 52.2408 8.09383 52.346 8.27118C52.4532 8.45038 52.5068 8.65159 52.5068 8.86999C52.5093 9.08045 52.4536 9.28751 52.346 9.46838Z" fill="url(#paint14_linear_6850_192860)"/>
<path d="M52.762 8.25998C52.603 7.88346 52.3033 7.58382 51.9268 7.42479C51.734 7.34261 51.5264 7.30108 51.3168 7.30278C51.0988 7.30278 50.8976 7.34359 50.7072 7.42479C50.5168 7.50599 50.3504 7.61679 50.2084 7.76079C50.0659 7.90459 49.9518 8.07394 49.872 8.25998C49.7908 8.45038 49.75 8.65199 49.75 8.86999C49.75 9.08599 49.7908 9.28919 49.872 9.47959C49.9532 9.66999 50.064 9.83639 50.2084 9.97839C50.3524 10.1208 50.5188 10.2336 50.7072 10.3148C50.8976 10.396 51.0988 10.4368 51.3168 10.4368C51.5348 10.4368 51.7364 10.396 51.9268 10.3148C52.1172 10.2336 52.2832 10.1228 52.4256 9.97879C52.5696 9.83439 52.6808 9.66799 52.762 9.47959C52.8432 9.28919 52.884 9.08759 52.884 8.86999C52.884 8.65399 52.8432 8.44998 52.762 8.25998ZM52.346 9.46838C52.2414 9.64615 52.0933 9.7944 51.9156 9.89919C51.7339 10.0065 51.5262 10.0619 51.3152 10.0596C51.1046 10.0622 50.8974 10.0067 50.7164 9.89919C50.5391 9.79388 50.3911 9.64575 50.286 9.46838C50.1786 9.28741 50.123 9.08042 50.1252 8.86999C50.1252 8.64999 50.1788 8.44998 50.286 8.27118C50.3907 8.09356 50.5388 7.94546 50.7164 7.84079C50.8975 7.73336 51.1046 7.67773 51.3152 7.67999C51.5262 7.67765 51.7339 7.73312 51.9156 7.84038C52.0929 7.94571 52.2408 8.09383 52.346 8.27118C52.4532 8.45038 52.5068 8.65159 52.5068 8.86999C52.5093 9.08045 52.4536 9.28751 52.346 9.46838Z" fill="url(#paint15_linear_6850_192860)"/>
</g>
<g id="Vector_9">
<path d="M51.8632 8.86051C51.9148 8.78651 51.9408 8.69811 51.9408 8.59091C51.9408 8.48691 51.9168 8.40051 51.8668 8.33211C51.8188 8.26371 51.758 8.21211 51.6896 8.17851C51.6301 8.14768 51.5643 8.13072 51.4972 8.12891H50.7656V9.57371H51.0836V9.08411H51.3976L51.6508 9.57371H52L51.7024 9.01011C51.7636 8.97491 51.8188 8.92691 51.8632 8.86051ZM51.516 8.78451C51.466 8.82731 51.4196 8.84931 51.3752 8.84931H51.0816V8.36331H51.3828C51.4216 8.36331 51.464 8.37811 51.516 8.41131C51.5656 8.44291 51.5916 8.50371 51.5916 8.59091C51.5916 8.67771 51.5676 8.74171 51.516 8.78451Z" fill="url(#paint16_linear_6850_192860)"/>
<path d="M51.8632 8.86051C51.9148 8.78651 51.9408 8.69811 51.9408 8.59091C51.9408 8.48691 51.9168 8.40051 51.8668 8.33211C51.8188 8.26371 51.758 8.21211 51.6896 8.17851C51.6301 8.14768 51.5643 8.13072 51.4972 8.12891H50.7656V9.57371H51.0836V9.08411H51.3976L51.6508 9.57371H52L51.7024 9.01011C51.7636 8.97491 51.8188 8.92691 51.8632 8.86051ZM51.516 8.78451C51.466 8.82731 51.4196 8.84931 51.3752 8.84931H51.0816V8.36331H51.3828C51.4216 8.36331 51.464 8.37811 51.516 8.41131C51.5656 8.44291 51.5916 8.50371 51.5916 8.59091C51.5916 8.67771 51.5676 8.74171 51.516 8.78451Z" fill="url(#paint17_linear_6850_192860)"/>
</g>
</g>
<defs>
<linearGradient id="paint0_linear_6850_192860" x1="23.5622" y1="5.3588" x2="23.5622" y2="13.6036" gradientUnits="userSpaceOnUse">
<stop stop-color="#0D0D0D"/>
<stop offset="1" stop-color="#1A1A1A" stop-opacity="0.8"/>
</linearGradient>
<linearGradient id="paint1_linear_6850_192860" x1="23.5622" y1="5.3588" x2="23.5622" y2="13.6036" gradientUnits="userSpaceOnUse">
<stop stop-color="#0D0D0D"/>
<stop offset="1" stop-color="#1A1A1A" stop-opacity="0.8"/>
</linearGradient>
<linearGradient id="paint2_linear_6850_192860" x1="31.1335" y1="7.125" x2="31.1335" y2="13.4502" gradientUnits="userSpaceOnUse">
<stop stop-color="white"/>
<stop offset="1" stop-color="white" stop-opacity="0.8"/>
</linearGradient>
<linearGradient id="paint3_linear_6850_192860" x1="31.1331" y1="7.12531" x2="31.1331" y2="13.4505" gradientUnits="userSpaceOnUse">
<stop stop-color="#0D0D0D"/>
<stop offset="1" stop-color="#1A1A1A" stop-opacity="0.8"/>
</linearGradient>
<linearGradient id="paint4_linear_6850_192860" x1="36.0878" y1="4.86914" x2="36.0878" y2="6.45474" gradientUnits="userSpaceOnUse">
<stop stop-color="white"/>
<stop offset="1" stop-color="white" stop-opacity="0.8"/>
</linearGradient>
<linearGradient id="paint5_linear_6850_192860" x1="36.0878" y1="4.86922" x2="36.0878" y2="6.45482" gradientUnits="userSpaceOnUse">
<stop stop-color="#0D0D0D"/>
<stop offset="1" stop-color="#1A1A1A" stop-opacity="0.8"/>
</linearGradient>
<linearGradient id="paint6_linear_6850_192860" x1="36.0878" y1="7.30469" x2="36.0878" y2="13.4487" gradientUnits="userSpaceOnUse">
<stop stop-color="white"/>
<stop offset="1" stop-color="white" stop-opacity="0.8"/>
</linearGradient>
<linearGradient id="paint7_linear_6850_192860" x1="36.0878" y1="7.30499" x2="36.0878" y2="13.449" gradientUnits="userSpaceOnUse">
<stop stop-color="#0D0D0D"/>
<stop offset="1" stop-color="#1A1A1A" stop-opacity="0.8"/>
</linearGradient>
<linearGradient id="paint8_linear_6850_192860" x1="39.7114" y1="5.36035" x2="39.7114" y2="13.522" gradientUnits="userSpaceOnUse">
<stop stop-color="white"/>
<stop offset="1" stop-color="white" stop-opacity="0.8"/>
</linearGradient>
<linearGradient id="paint9_linear_6850_192860" x1="39.7116" y1="5.36075" x2="39.7116" y2="13.5223" gradientUnits="userSpaceOnUse">
<stop stop-color="#0D0D0D"/>
<stop offset="1" stop-color="#1A1A1A" stop-opacity="0.8"/>
</linearGradient>
<linearGradient id="paint10_linear_6850_192860" x1="45.3473" y1="7.30469" x2="45.3473" y2="15.4775" gradientUnits="userSpaceOnUse">
<stop stop-color="white"/>
<stop offset="1" stop-color="white" stop-opacity="0.8"/>
</linearGradient>
<linearGradient id="paint11_linear_6850_192860" x1="45.3473" y1="7.30508" x2="45.3473" y2="15.4779" gradientUnits="userSpaceOnUse">
<stop stop-color="#0D0D0D"/>
<stop offset="1" stop-color="#1A1A1A" stop-opacity="0.8"/>
</linearGradient>
<linearGradient id="paint12_linear_6850_192860" x1="7.92042" y1="0.704102" x2="7.92042" y2="18.5613" gradientUnits="userSpaceOnUse">
<stop stop-color="white"/>
<stop offset="1" stop-color="white" stop-opacity="0.8"/>
</linearGradient>
<linearGradient id="paint13_linear_6850_192860" x1="7.92023" y1="0.704968" x2="7.92023" y2="18.5622" gradientUnits="userSpaceOnUse">
<stop stop-color="#0D0D0D"/>
<stop offset="1" stop-color="#1A1A1A" stop-opacity="0.8"/>
</linearGradient>
<linearGradient id="paint14_linear_6850_192860" x1="51.3168" y1="7.30278" x2="51.3168" y2="10.4368" gradientUnits="userSpaceOnUse">
<stop stop-color="white"/>
<stop offset="1" stop-color="white" stop-opacity="0.8"/>
</linearGradient>
<linearGradient id="paint15_linear_6850_192860" x1="51.317" y1="7.30289" x2="51.317" y2="10.4369" gradientUnits="userSpaceOnUse">
<stop stop-color="#0D0D0D"/>
<stop offset="1" stop-color="#1A1A1A" stop-opacity="0.8"/>
</linearGradient>
<linearGradient id="paint16_linear_6850_192860" x1="51.3828" y1="8.12891" x2="51.3828" y2="9.57371" gradientUnits="userSpaceOnUse">
<stop stop-color="white"/>
<stop offset="1" stop-color="white" stop-opacity="0.8"/>
</linearGradient>
<linearGradient id="paint17_linear_6850_192860" x1="51.3828" y1="8.12898" x2="51.3828" y2="9.57378" gradientUnits="userSpaceOnUse">
<stop stop-color="#0D0D0D"/>
<stop offset="1" stop-color="#1A1A1A" stop-opacity="0.8"/>
</linearGradient>
</defs>
</svg>

<svg xmlns="http://www.w3.org/2000/svg" width="54" height="20" fill="none"><path fill="url(#a)" d="M25.029 10.46c0 .841-.468 1.44-1.453 1.44-1.044 0-1.476-.564-1.476-1.404V5.358h-2.125v5.065c0 2.005 1.199 3.18 3.6 3.18 2.387 0 3.575-1.199 3.575-3.18V5.361h-2.125v5.1h.004Z"/><path fill="url(#b)" d="M25.029 10.46c0 .841-.468 1.44-1.453 1.44-1.044 0-1.476-.564-1.476-1.404V5.358h-2.125v5.065c0 2.005 1.199 3.18 3.6 3.18 2.387 0 3.575-1.199 3.575-3.18V5.361h-2.125v5.1h.004Z"/><path fill="url(#c)" d="M31.974 7.125c-.852 0-1.44.36-1.896 1.02h-.037v-.84h-1.885v6.143h1.957v-3.394c0-.756.432-1.295 1.08-1.295.635 0 .96.443.96 1.092v3.6h1.957V9.452c0-1.367-.793-2.328-2.136-2.328Z"/><path fill="url(#d)" d="M31.974 7.125c-.852 0-1.44.36-1.896 1.02h-.037v-.84h-1.885v6.143h1.957v-3.394c0-.756.432-1.295 1.08-1.295.635 0 .96.443.96 1.092v3.6h1.957V9.452c0-1.367-.793-2.328-2.136-2.328Z"/><path fill="url(#e)" d="M37.066 4.87H35.11v1.585h1.957V4.869Z"/><path fill="url(#f)" d="M37.066 4.87H35.11v1.585h1.957V4.869Z"/><path fill="url(#g)" d="M37.066 7.305H35.11v6.144h1.957V7.305Z"/><path fill="url(#h)" d="M37.066 7.305H35.11v6.144h1.957V7.305Z"/><path fill="url(#i)" d="M40.516 5.36h-1.909v1.944h-.816V8.89h.816v2.94c0 1.319.817 1.692 1.957 1.692.529 0 .9-.048 1.068-.096v-1.428c-.072 0-.264.012-.432.012-.42 0-.684-.12-.684-.6V8.89h1.116V7.304h-1.116V5.36Z"/><path fill="url(#j)" d="M40.516 5.36h-1.909v1.944h-.816V8.89h.816v2.94c0 1.319.817 1.692 1.957 1.692.529 0 .9-.048 1.068-.096v-1.428c-.072 0-.264.012-.432.012-.42 0-.684-.12-.684-.6V8.89h1.116V7.304h-1.116V5.36Z"/><path fill="url(#k)" d="M45.798 9.921c-.192.6-.36 1.416-.36 1.416h-.024s-.192-.817-.385-1.416l-.827-2.616h-2.064l1.812 4.728c.252.649.372 1.01.372 1.272 0 .419-.228.648-.804.648h-.673v1.524h1.272c1.236 0 1.824-.504 2.315-1.944l2.125-6.228H46.6l-.802 2.616Z"/><path fill="url(#l)" d="M45.798 9.921c-.192.6-.36 1.416-.36 1.416h-.024s-.192-.817-.385-1.416l-.827-2.616h-2.064l1.812 4.728c.252.649.372 1.01.372 1.272 0 .419-.228.648-.804.648h-.673v1.524h1.272c1.236 0 1.824-.504 2.315-1.944l2.125-6.228H46.6l-.802 2.616Z"/><path fill="url(#m)" d="m8.612 3.899 2.827 1.632c.101.057.105.216 0 .273l-3.36 1.94a.312.312 0 0 1-.316 0l-3.359-1.94c-.103-.056-.105-.218 0-.274L7.23 3.9V.704L.016 4.87v8.33l2.766-1.597V8.34c-.002-.116.135-.2.236-.136l3.36 1.94a.316.316 0 0 1 .158.273v3.879c.002.116-.134.2-.236.136L3.473 12.8.707 14.396l7.213 4.165 7.214-4.165-2.766-1.596-2.828 1.632c-.1.06-.24-.02-.236-.137v-3.879a.316.316 0 0 1 .159-.273l3.36-1.94c.1-.061.24.016.236.136v3.263l2.766 1.597v-8.33L8.612.704V3.9Z"/><path fill="url(#n)" d="m8.612 3.899 2.827 1.632c.101.057.105.216 0 .273l-3.36 1.94a.312.312 0 0 1-.316 0l-3.359-1.94c-.103-.056-.105-.218 0-.274L7.23 3.9V.704L.016 4.87v8.33l2.766-1.597V8.34c-.002-.116.135-.2.236-.136l3.36 1.94a.316.316 0 0 1 .158.273v3.879c.002.116-.134.2-.236.136L3.473 12.8.707 14.396l7.213 4.165 7.214-4.165-2.766-1.596-2.828 1.632c-.1.06-.24-.02-.236-.137v-3.879a.316.316 0 0 1 .159-.273l3.36-1.94c.1-.061.24.016.236.136v3.263l2.766 1.597v-8.33L8.612.704V3.9Z"/><path fill="url(#o)" d="M52.762 8.26a1.57 1.57 0 0 0-2.89 0c-.081.19-.122.392-.122.61 0 .216.04.42.122.61.081.19.192.356.336.498.144.143.31.256.5.337.19.081.39.122.609.122a1.543 1.543 0 0 0 1.109-.458 1.59 1.59 0 0 0 .336-.5c.081-.19.122-.391.122-.609 0-.216-.04-.42-.122-.61Zm-.416 1.208a1.216 1.216 0 0 1-.43.431c-.182.108-.39.163-.6.16a1.145 1.145 0 0 1-.6-.16 1.23 1.23 0 0 1-.43-.43 1.149 1.149 0 0 1-.16-.599c0-.22.053-.42.16-.599.105-.177.253-.326.43-.43a1.15 1.15 0 0 1 .6-.161c.21-.002.418.053.6.16.177.106.325.254.43.431.107.18.16.38.16.599.003.21-.052.418-.16.598Z"/><path fill="url(#p)" d="M52.762 8.26a1.57 1.57 0 0 0-2.89 0c-.081.19-.122.392-.122.61 0 .216.04.42.122.61.081.19.192.356.336.498.144.143.31.256.5.337.19.081.39.122.609.122a1.543 1.543 0 0 0 1.109-.458 1.59 1.59 0 0 0 .336-.5c.081-.19.122-.391.122-.609 0-.216-.04-.42-.122-.61Zm-.416 1.208a1.216 1.216 0 0 1-.43.431c-.182.108-.39.163-.6.16a1.145 1.145 0 0 1-.6-.16 1.23 1.23 0 0 1-.43-.43 1.149 1.149 0 0 1-.16-.599c0-.22.053-.42.16-.599.105-.177.253-.326.43-.43a1.15 1.15 0 0 1 .6-.161c.21-.002.418.053.6.16.177.106.325.254.43.431.107.18.16.38.16.599.003.21-.052.418-.16.598Z"/><path fill="url(#q)" d="M51.863 8.86a.456.456 0 0 0 .078-.27.427.427 0 0 0-.074-.258.47.47 0 0 0-.37-.203h-.731v1.445h.318v-.49h.314l.253.49H52l-.298-.564a.475.475 0 0 0 .161-.15Zm-.347-.075c-.05.042-.096.064-.14.064h-.294v-.486h.3c.04 0 .082.015.134.048.05.032.076.093.076.18s-.024.15-.076.194Z"/><path fill="url(#r)" d="M51.863 8.86a.456.456 0 0 0 .078-.27.427.427 0 0 0-.074-.258.47.47 0 0 0-.37-.203h-.731v1.445h.318v-.49h.314l.253.49H52l-.298-.564a.475.475 0 0 0 .161-.15Zm-.347-.075c-.05.042-.096.064-.14.064h-.294v-.486h.3c.04 0 .082.015.134.048.05.032.076.093.076.18s-.024.15-.076.194Z"/><defs><linearGradient id="a" x1="23.562" x2="23.562" y1="5.359" y2="13.604" gradientUnits="userSpaceOnUse"><stop stop-color="#0D0D0D"/><stop offset="1" stop-color="#1A1A1A" stop-opacity=".8"/></linearGradient><linearGradient id="b" x1="23.562" x2="23.562" y1="5.359" y2="13.604" gradientUnits="userSpaceOnUse"><stop stop-color="#0D0D0D"/><stop offset="1" stop-color="#1A1A1A" stop-opacity=".8"/></linearGradient><linearGradient id="c" x1="31.134" x2="31.134" y1="7.125" y2="13.45" gradientUnits="userSpaceOnUse"><stop stop-color="#fff"/><stop offset="1" stop-color="#fff" stop-opacity=".8"/></linearGradient><linearGradient id="d" x1="31.133" x2="31.133" y1="7.125" y2="13.45" gradientUnits="userSpaceOnUse"><stop stop-color="#0D0D0D"/><stop offset="1" stop-color="#1A1A1A" stop-opacity=".8"/></linearGradient><linearGradient id="e" x1="36.088" x2="36.088" y1="4.869" y2="6.455" gradientUnits="userSpaceOnUse"><stop stop-color="#fff"/><stop offset="1" stop-color="#fff" stop-opacity=".8"/></linearGradient><linearGradient id="f" x1="36.088" x2="36.088" y1="4.869" y2="6.455" gradientUnits="userSpaceOnUse"><stop stop-color="#0D0D0D"/><stop offset="1" stop-color="#1A1A1A" stop-opacity=".8"/></linearGradient><linearGradient id="g" x1="36.088" x2="36.088" y1="7.305" y2="13.449" gradientUnits="userSpaceOnUse"><stop stop-color="#fff"/><stop offset="1" stop-color="#fff" stop-opacity=".8"/></linearGradient><linearGradient id="h" x1="36.088" x2="36.088" y1="7.305" y2="13.449" gradientUnits="userSpaceOnUse"><stop stop-color="#0D0D0D"/><stop offset="1" stop-color="#1A1A1A" stop-opacity=".8"/></linearGradient><linearGradient id="i" x1="39.711" x2="39.711" y1="5.36" y2="13.522" gradientUnits="userSpaceOnUse"><stop stop-color="#fff"/><stop offset="1" stop-color="#fff" stop-opacity=".8"/></linearGradient><linearGradient id="j" x1="39.712" x2="39.712" y1="5.361" y2="13.522" gradientUnits="userSpaceOnUse"><stop stop-color="#0D0D0D"/><stop offset="1" stop-color="#1A1A1A" stop-opacity=".8"/></linearGradient><linearGradient id="k" x1="45.347" x2="45.347" y1="7.305" y2="15.477" gradientUnits="userSpaceOnUse"><stop stop-color="#fff"/><stop offset="1" stop-color="#fff" stop-opacity=".8"/></linearGradient><linearGradient id="l" x1="45.347" x2="45.347" y1="7.305" y2="15.478" gradientUnits="userSpaceOnUse"><stop stop-color="#0D0D0D"/><stop offset="1" stop-color="#1A1A1A" stop-opacity=".8"/></linearGradient><linearGradient id="m" x1="7.92" x2="7.92" y1=".704" y2="18.561" gradientUnits="userSpaceOnUse"><stop stop-color="#fff"/><stop offset="1" stop-color="#fff" stop-opacity=".8"/></linearGradient><linearGradient id="n" x1="7.92" x2="7.92" y1=".705" y2="18.562" gradientUnits="userSpaceOnUse"><stop stop-color="#0D0D0D"/><stop offset="1" stop-color="#1A1A1A" stop-opacity=".8"/></linearGradient><linearGradient id="o" x1="51.317" x2="51.317" y1="7.303" y2="10.437" gradientUnits="userSpaceOnUse"><stop stop-color="#fff"/><stop offset="1" stop-color="#fff" stop-opacity=".8"/></linearGradient><linearGradient id="p" x1="51.317" x2="51.317" y1="7.303" y2="10.437" gradientUnits="userSpaceOnUse"><stop stop-color="#0D0D0D"/><stop offset="1" stop-color="#1A1A1A" stop-opacity=".8"/></linearGradient><linearGradient id="q" x1="51.383" x2="51.383" y1="8.129" y2="9.574" gradientUnits="userSpaceOnUse"><stop stop-color="#fff"/><stop offset="1" stop-color="#fff" stop-opacity=".8"/></linearGradient><linearGradient id="r" x1="51.383" x2="51.383" y1="8.129" y2="9.574" gradientUnits="userSpaceOnUse"><stop stop-color="#0D0D0D"/><stop offset="1" stop-color="#1A1A1A" stop-opacity=".8"/></linearGradient></defs></svg>
